packages/appstore/src/assets/svgs/trading-platform/ic-appstore-smarttrader-blue.svg

<svg  viewBox="0 0 32 32"  viewBox="0 0 27 26" fill="none" xmlns="http://www.w3.org/2000/svg"><g clip-path="url(#clip0_27439_122675)"><path fill-rule="evenodd" clip-rule="evenodd" d="M5.31999 0.100006H21.32C23.968 0.100006 26.12 2.25201 26.12 4.90001V20.9C26.12 23.548 23.968 25.7 21.32 25.7H5.31999C2.67199 25.7 0.519989 23.548 0.519989 20.9V4.90001C0.519989 2.25201 2.67199 0.100006 5.31999 0.100006Z" fill="url(#paint0_linear_27439_122675)"/><path d="M16.1701 10.9959L12.6581 9.40391L13.2421 12.3319L15.1301 13.1959C15.7701 13.4759 16.2821 13.9879 16.5541 14.6359C16.8261 15.2759 16.8501 16.0039 16.6181 16.6599C16.3861 17.3159 15.9061 17.8599 15.2821 18.1799C14.6581 18.4999 13.9461 18.5719 13.2661 18.3879C13.1221 18.3559 12.9861 18.3079 12.8501 18.2439L11.0581 17.4199L8.29813 18.7719L11.8901 20.4039C14.4661 21.4599 17.4101 20.2839 18.5541 17.7559C19.7061 15.2279 18.6501 12.2359 16.1621 10.9879L16.1701 10.9959Z" fill="white"/><path d="M11.5287 12.6677C10.8887 12.3877 10.3767 11.8757 10.0967 11.2357C9.81671 10.5957 9.79271 9.86766 10.0327 9.21166C10.2727 8.55566 10.7447 8.00366 11.3687 7.68366C11.9927 7.36366 12.7127 7.29166 13.3847 7.48366C13.5287 7.51566 13.6647 7.56366 13.8007 7.62766L15.6167 8.45166L18.3767 7.09966L14.7847 5.46766C14.5207 5.34766 14.2407 5.25966 13.9527 5.18766C11.3767 4.56366 8.75271 5.98766 7.86471 8.48366C6.97671 10.9797 8.11271 13.7397 10.4967 14.8917L14.0087 16.4837L13.4087 13.5317L11.5207 12.6837L11.5287 12.6677Z" fill="white"/></g><defs><linearGradient id="paint0_linear_27439_122675" x1="13.32" y1="25.7" x2="13.32" y2="0.100006" gradientUnits="userSpaceOnUse"><stop stop-color="#2A3052"/><stop offset="1" stop-color="#4B62AA"/></linearGradient><clipPath id="clip0_27439_122675"><rect width="25.6" height="25.6" fill="white" transform="translate(0.519989 0.100006)"/></clipPath></defs></svg>

<svg viewBox="0 0 27 26" fill="none" xmlns="http://www.w3.org/2000/svg"><g clip-path="url(#a)"><path fill-rule="evenodd" clip-rule="evenodd" d="M5.32.1h16c2.648 0 4.8 2.152 4.8 4.8v16c0 2.648-2.152 4.8-4.8 4.8h-16a4.804 4.804 0 0 1-4.8-4.8v-16C.52 2.252 2.672.1 5.32.1Z" fill="url(#b)"/><path d="m16.17 10.996-3.512-1.592.584 2.928 1.888.864c.64.28 1.152.792 1.424 1.44.272.64.296 1.368.064 2.024a2.741 2.741 0 0 1-1.336 1.52 2.795 2.795 0 0 1-2.016.208 1.972 1.972 0 0 1-.416-.144l-1.792-.824-2.76 1.352 3.592 1.632a5.165 5.165 0 0 0 6.664-2.648 5.175 5.175 0 0 0-2.392-6.768l.008.008Z" fill="#fff"/><path d="M11.529 12.668a2.78 2.78 0 0 1-1.432-1.432 2.725 2.725 0 0 1-.064-2.024 2.787 2.787 0 0 1 1.336-1.528 2.757 2.757 0 0 1 2.016-.2c.144.032.28.08.416.144l1.816.824 2.76-1.352-3.592-1.632a5.169 5.169 0 0 0-6.92 3.016 5.186 5.186 0 0 0 2.632 6.408l3.512 1.592-.6-2.952-1.888-.848.008-.016Z" fill="#fff"/></g><defs><linearGradient id="b" x1="13.32" y1="25.7" x2="13.32" y2=".1" gradientUnits="userSpaceOnUse"><stop stop-color="#2A3052"/><stop offset="1" stop-color="#4B62AA"/></linearGradient><clipPath id="a"><path fill="#fff" transform="translate(.52 .1)" d="M0 0h25.6v25.6H0z"/></clipPath></defs></svg>
